X: 360
T:Je ris
N: Derived from Jos2819-Je_ris.krn
C: Josquin des Prez
%%abc-version 2.0
%%abcx-abcm2ps-target-version 5.9.1 (29 Sep 2008)
%%abc-creator hum2abc beta
%%abcx-conversion-date 2019/02/12 16:15:54
%%abc-edited-by Jesse Rodin
%%abc-edited-by Jesse Rodin; Victoria Chang 2011/10/21
%%abcx-initial-encoding-date 2011/10/21/
%%humdrum-veritas 1487595115
%%humdrum-veritas-data 2991177532
%%linebreak <none>
%%barnumbers 0
L: 1/4
M: 2/1
Q: 1/2=120
%%staves [1 2 3 4]
V: 1 clef=treble
V: 2 clef=treble-8
V: 3 clef=treble-8
V: 4 clef=bass
K: C
[V:1] z4A4 | 
[V:2] A4c4- | 
[V:3] z8 | 
[V:4] A,4A,4- | 
[V:1] A6G2 | 
[V:2] c4c4 | 
[V:3] z4A4 | 
[V:4] A,2G,2F,2E,2 | 
[V:1] F4E4 | 
[V:2] d2A2c3B | 
[V:3] A6G2 | 
[V:4] D,4C,4 | 
[V:1] F6E2 | 
[V:2] AGA6 | 
[V:3] F3ED2C2 | 
[V:4] D,6A,,2 | 
[V:1] D4^C4 | 
[V:2] F2G2A4- | 
[V:3] D4E4 | 
[V:4] _B,,4A,,4 | 
[V:1] D4z2A2- | 
[V:2] A2F4ED | 
[V:3] D8 | 
[V:4] A,6G,F, | 
[V:1] A2B4AG | 
[V:2] D2d3ef2- | 
[V:3] z4d4 | 
[V:4] F,2G,4F,E, | 
[V:1] A2B2c2A2- | 
[V:2] f2ede4 | 
[V:3] d4c4 | 
[V:4] D,4A,4 | 
[V:1] A2GFG4 | 
[V:2] A2B2G4 | 
[V:3] d4e4 | 
[V:4] F,2G,2E,4 | 
[V:1] F4A4 | 
[V:2] A4z2e2 | 
[V:3] f6e2 | 
[V:4] D,6C,2 | 
[V:1] A4^G4 | 
[V:2] f4e4 | 
[V:3] d2c2B4 | 
[V:4] D,4E,4 | 
[V:1] A6B2 | 
[V:2] c4f4 | 
[V:3] A4d4 | 
[V:4] F,4D,4 | 
[V:1] c2A2c2B2- | 
[V:2] e6e2 | 
[V:3] c4A2B2 | 
[V:4] A,6G,2 | 
[V:1] B2A4^G2 | 
[V:2] f4e4 | 
[V:3] c2d2B4 | 
[V:4] F,2D,2E,4 | 
[V:1] A8 | 
[V:2] c8- | 
[V:3] A8- | 
[V:4] A,,8 | 
[V:1] z4A4 | 
[V:2] c8 | 
[V:3] A8 | 
[V:4] A,4A,4- | 
[V:1] A6G2 | 
[V:2] z4A4 | 
[V:3] z8 | 
[V:4] A,2G,2F,2E,2 | 
[V:1] F4E4 | 
[V:2] A6G2 | 
[V:3] z8 | 
[V:4] D,4C,4 | 
[V:1] F6ED | 
[V:2] F4D4 | 
[V:3] z4A4 | 
[V:4] D,6C,B,, | 
[V:1] C2F3EE2- | 
[V:2] E2F2C2c2 | 
[V:3] A6G2 | 
[V:4] A,,2D,2E,2C,2 | 
[V:1] E2D2E2G2 | 
[V:2] A2B2c4 | 
[V:3] F4E4 | 
[V:4] D,4C,4 | 
[V:1] F2A4G2- | 
[V:2] A4F2G2 | 
[V:3] F6ED | 
[V:4] D,6E,2- | 
[V:1] G2FED4 | 
[V:2] E2A4^G2 | 
[V:3] C4D4 | 
[V:4] E,2D,C,B,,4 | 
[V:1] C2E3DC2 | 
[V:2] ABcde4- | 
[V:3] E8- | 
[V:4] A,,3B,,C,D,E,F, | 
[V:1] B,2A,2B,4 | 
[V:2] e8 | 
[V:3] E8 | 
[V:4] G,2A,4^G,2 | 
[V:1] A,8 | 
[V:2] c2A3GAB | 
[V:3] z4A4 | 
[V:4] A,3B,C4 | 
[V:1] z4A4 | 
[V:2] c4F2G2 | 
[V:3] A6G2 | 
[V:4] F,3G,A,4 | 
[V:1] A6G2 | 
[V:2] A4D4 | 
[V:3] F6E2 | 
[V:4] D,4A,4 | 
[V:1] F4E4 | 
[V:2] z4A4 | 
[V:3] D4C4 | 
[V:4] A,6G,2 | 
[V:1] F3DF2E2- | 
[V:2] A2A2A2A2 | 
[V:3] D6E2 | 
[V:4] F,2E,2D,2C,2 | 
[V:1] EDD4^C2 | 
[V:2] B2G2A4- | 
[V:3] F2G2E4 | 
[V:4] B,,4A,,4 | 
[V:1] D4z2A2 | 
[V:2] A2GFF3E | 
[V:3] D8 | 
[V:4] z2A,2A,3G, | 
[V:1] A3GF2E2 | 
[V:2] D2c2d2e2 | 
[V:3] z2A2A3G | 
[V:4] F,3E,D,2C,2 | 
[V:1] F4F2E2- | 
[V:2] A2B3Ac2 | 
[V:3] F3ED2C2 | 
[V:4] D,2B,,2D,2A,,2 | 
[V:1] EDD4^C2 | 
[V:2] F2G2A4- | 
[V:3] D4E4 | 
[V:4] _B,,4A,,4 | 
[V:1] D8- | 
[V:2] A2F2_B4 | 
[V:3] D8- | 
[V:4] D,8- | 
[V:1] D8 |]  
[V:2] A8 |]  
[V:3] D8 |]  
[V:4] D,8 |]  



